src/assets/images/IconDownload.svg

<svg width="14" height="14" viewBox="0 0 21 28" fill="none" xmlns="http://www.w3.org/2000/svg">
<path d="M18.7254 25.4983H13.546H6.3745H1.19519C0.398364 25.4983 0 25.8969 0 26.6937C0 27.4905 0.398364 27.8889 1.19519 27.8889H6.3745H13.546H18.7254C19.5223 27.8889 19.9206 27.4905 19.9206 26.6937C20.319 26.2953 19.5223 25.4983 18.7254 25.4983ZM8.76512 13.5459V1.19519C8.76512 0.398364 9.16349 0 9.96031 0C10.7571 0 11.1555 0.398364 11.1555 1.19519V13.5459C11.1555 14.3427 10.7571 14.7413 9.96031 14.7413C9.5619 14.7413 8.76512 14.3427 8.76512 13.5459ZM5.57787 14.3428L10.3586 19.1237L15.1396 14.3428C15.538 13.9443 16.3349 13.9443 17.1317 14.3428C17.5301 14.7412 17.5301 15.538 17.1317 16.3348L11.5541 21.9127C11.1556 22.3111 10.3588 22.3111 9.562 21.9127L3.98412 16.3348C3.58571 15.9364 3.58571 15.1396 3.98412 14.3428C4.38254 13.9443 5.17946 13.9443 5.57787 14.3428Z" fill="white"/>
</svg>

<svg width="14" height="14" viewBox="0 0 21 28" fill="none" xmlns="http://www.w3.org/2000/svg"><path d="M18.725 25.498H1.195c-.797 0-1.195.399-1.195 1.196 0 .797.398 1.195 1.195 1.195h17.531c.796 0 1.195-.398 1.195-1.195.398-.399-.399-1.196-1.196-1.196zm-9.96-11.952V1.196C8.765.397 9.163 0 9.96 0s1.195.398 1.195 1.195v12.35c0 .798-.398 1.196-1.195 1.196-.398 0-1.195-.398-1.195-1.195zm-3.187.797 4.78 4.78 4.782-4.78c.398-.399 1.195-.399 1.992 0 .398.398.398 1.195 0 1.992l-5.578 5.578c-.398.398-1.195.398-1.992 0l-5.578-5.578c-.398-.399-.398-1.195 0-1.992.399-.399 1.195-.399 1.594 0z" fill="#fff"/></svg>
